X:498
T: "Des Reiters Liebchen"
N: Z1178
O: Europa, Mitteleuropa, Deutschland, Schwaben
R: Liebes - Lied
M: 3/4
L: 1/8
K: D
A2 | F2A2A2 | B2A2A2 | F2A2A2 | A4
A2 | A2B2B2 | d3cB2 | B2A2A2 | A4
BA | AGGFG2 | G4AG | GFFEF2 | F4
A2 | A2g3A | A2f3f | feedce | d4
A2 | GAceg2 | FAdfa2 | gfedce | D4

@@@ Tune index: 10256
